bernoullicharts/log_1_x_flajolet__mean.svg

<?xml version="1.0" encoding="utf-8" standalone="no"?>
<!DOCTYPE svg PUBLIC "-//W3C//DTD SVG 1.1//EN"
  "http://www.w3.org/Graphics/SVG/1.1/DTD/svg11.dtd">
<!-- Created with matplotlib (https://matplotlib.org/) -->
<svg height="345.6pt" version="1.1" viewBox="0 0 460.8 345.6" width="460.8pt" xmlns="http://www.w3.org/2000/svg" xmlns:xlink="http://www.w3.org/1999/xlink">
 <defs>
  <style type="text/css">
*{stroke-linecap:butt;stroke-linejoin:round;}
  </style>
 </defs>
 <g id="figure_1">
  <g id="patch_1">
   <path d="M 0 345.6 
L 460.8 345.6 
L 460.8 0 
L 0 0 
z
" style="fill:#ffffff;"/>
  </g>
  <g id="axes_1">
   <g id="patch_2">
    <path d="M 57.6 307.584 
L 414.72 307.584 
L 414.72 41.472 
L 57.6 41.472 
z
" style="fill:#ffffff;"/>
   </g>
   <g id="matplotlib.axis_1">
    <g id="xtick_1">
     <g id="line2d_1">
      <defs>
       <path d="M 0 0 
L 0 3.5 
" id="m094dcdc63f" style="stroke:#000000;stroke-width:0.8;"/>
      </defs>
      <g>
       <use style="stroke:#000000;stroke-width:0.8;" x="73.800255" xlink:href="#m094dcdc63f" y="307.584"/>
      </g>
     </g>
     <g id="text_1">
      <text style="font-family:DejaVu Sans;font-size:10px;font-style:normal;font-weight:normal;text-anchor:middle;" transform="rotate(-0, 73.800255, 322.182437)" x="73.800255" y="322.182437">0.0</text>
     </g>
    </g>
    <g id="xtick_2">
     <g id="line2d_2">
      <g>
       <use style="stroke:#000000;stroke-width:0.8;" x="138.744153" xlink:href="#m094dcdc63f" y="307.584"/>
      </g>
     </g>
     <g id="text_2">
      <text style="font-family:DejaVu Sans;font-size:10px;font-style:normal;font-weight:normal;text-anchor:middle;" transform="rotate(-0, 138.744153, 322.182437)" x="138.744153" y="322.182437">0.2</text>
     </g>
    </g>
    <g id="xtick_3">
     <g id="line2d_3">
      <g>
       <use style="stroke:#000000;stroke-width:0.8;" x="203.688051" xlink:href="#m094dcdc63f" y="307.584"/>
      </g>
     </g>
     <g id="text_3">
      <text style="font-family:DejaVu Sans;font-size:10px;font-style:normal;font-weight:normal;text-anchor:middle;" transform="rotate(-0, 203.688051, 322.182437)" x="203.688051" y="322.182437">0.4</text>
     </g>
    </g>
    <g id="xtick_4">
     <g id="line2d_4">
      <g>
       <use style="stroke:#000000;stroke-width:0.8;" x="268.631949" xlink:href="#m094dcdc63f" y="307.584"/>
      </g>
     </g>
     <g id="text_4">
      <text style="font-family:DejaVu Sans;font-size:10px;font-style:normal;font-weight:normal;text-anchor:middle;" transform="rotate(-0, 268.631949, 322.182437)" x="268.631949" y="322.182437">0.6</text>
     </g>
    </g>
    <g id="xtick_5">
     <g id="line2d_5">
      <g>
       <use style="stroke:#000000;stroke-width:0.8;" x="333.575847" xlink:href="#m094dcdc63f" y="307.584"/>
      </g>
     </g>
     <g id="text_5">
      <text style="font-family:DejaVu Sans;font-size:10px;font-style:normal;font-weight:normal;text-anchor:middle;" transform="rotate(-0, 333.575847, 322.182437)" x="333.575847" y="322.182437">0.8</text>
     </g>
    </g>
    <g id="xtick_6">
     <g id="line2d_6">
      <g>
       <use style="stroke:#000000;stroke-width:0.8;" x="398.519745" xlink:href="#m094dcdc63f" y="307.584"/>
      </g>
     </g>
     <g id="text_6">
      <text style="font-family:DejaVu Sans;font-size:10px;font-style:normal;font-weight:normal;text-anchor:middle;" transform="rotate(-0, 398.519745, 322.182437)" x="398.519745" y="322.182437">1.0</text>
     </g>
    </g>
    <g id="text_7">
     <text style="font-family:DejaVu Sans;font-size:10px;font-style:normal;font-weight:normal;text-anchor:middle;" transform="rotate(-0, 236.16, 335.860562)" x="236.16" y="335.860562">Input Coin's Heads Probability (λ)</text>
    </g>
   </g>
   <g id="matplotlib.axis_2">
    <g id="ytick_1">
     <g id="line2d_7">
      <defs>
       <path d="M 0 0 
L -3.5 0 
" id="m4ee8a53234" style="stroke:#000000;stroke-width:0.8;"/>
      </defs>
      <g>
       <use style="stroke:#000000;stroke-width:0.8;" x="57.6" xlink:href="#m4ee8a53234" y="295.488"/>
      </g>
     </g>
     <g id="text_8">
      <text style="font-family:DejaVu Sans;font-size:10px;font-style:normal;font-weight:normal;text-anchor:end;" transform="rotate(-0, 50.6, 299.287219)" x="50.6" y="299.287219">0.0</text>
     </g>
    </g>
    <g id="ytick_2">
     <g id="line2d_8">
      <g>
       <use style="stroke:#000000;stroke-width:0.8;" x="57.6" xlink:href="#m4ee8a53234" y="261.124364"/>
      </g>
     </g>
     <g id="text_9">
      <text style="font-family:DejaVu Sans;font-size:10px;font-style:normal;font-weight:normal;text-anchor:end;" transform="rotate(-0, 50.6, 264.923582)" x="50.6" y="264.923582">0.1</text>
     </g>
    </g>
    <g id="ytick_3">
     <g id="line2d_9">
      <g>
       <use style="stroke:#000000;stroke-width:0.8;" x="57.6" xlink:href="#m4ee8a53234" y="226.760727"/>
      </g>
     </g>
     <g id="text_10">
      <text style="font-family:DejaVu Sans;font-size:10px;font-style:normal;font-weight:normal;text-anchor:end;" transform="rotate(-0, 50.6, 230.559946)" x="50.6" y="230.559946">0.2</text>
     </g>
    </g>
    <g id="ytick_4">
     <g id="line2d_10">
      <g>
       <use style="stroke:#000000;stroke-width:0.8;" x="57.6" xlink:href="#m4ee8a53234" y="192.397091"/>
      </g>
     </g>
     <g id="text_11">
      <text style="font-family:DejaVu Sans;font-size:10px;font-style:normal;font-weight:normal;text-anchor:end;" transform="rotate(-0, 50.6, 196.19631)" x="50.6" y="196.19631">0.3</text>
     </g>
    </g>
    <g id="ytick_5">
     <g id="line2d_11">
      <g>
       <use style="stroke:#000000;stroke-width:0.8;" x="57.6" xlink:href="#m4ee8a53234" y="158.033455"/>
      </g>
     </g>
     <g id="text_12">
      <text style="font-family:DejaVu Sans;font-size:10px;font-style:normal;font-weight:normal;text-anchor:end;" transform="rotate(-0, 50.6, 161.832673)" x="50.6" y="161.832673">0.4</text>
     </g>
    </g>
    <g id="ytick_6">
     <g id="line2d_12">
      <g>
       <use style="stroke:#000000;stroke-width:0.8;" x="57.6" xlink:href="#m4ee8a53234" y="123.669818"/>
      </g>
     </g>
     <g id="text_13">
      <text style="font-family:DejaVu Sans;font-size:10px;font-style:normal;font-weight:normal;text-anchor:end;" transform="rotate(-0, 50.6, 127.469037)" x="50.6" y="127.469037">0.5</text>
     </g>
    </g>
    <g id="ytick_7">
     <g id="line2d_13">
      <g>
       <use style="stroke:#000000;stroke-width:0.8;" x="57.6" xlink:href="#m4ee8a53234" y="89.306182"/>
      </g>
     </g>
     <g id="text_14">
      <text style="font-family:DejaVu Sans;font-size:10px;font-style:normal;font-weight:normal;text-anchor:end;" transform="rotate(-0, 50.6, 93.105401)" x="50.6" y="93.105401">0.6</text>
     </g>
    </g>
    <g id="ytick_8">
     <g id="line2d_14">
      <g>
       <use style="stroke:#000000;stroke-width:0.8;" x="57.6" xlink:href="#m4ee8a53234" y="54.942545"/>
      </g>
     </g>
     <g id="text_15">
      <text style="font-family:DejaVu Sans;font-size:10px;font-style:normal;font-weight:normal;text-anchor:end;" transform="rotate(-0, 50.6, 58.741764)" x="50.6" y="58.741764">0.7</text>
     </g>
    </g>
    <g id="text_16">
     <text style="font-family:DejaVu Sans;font-size:10px;font-style:normal;font-weight:normal;text-anchor:middle;" transform="rotate(-90, 28.617187, 174.528)" x="28.617187" y="174.528">Simulated Mean / Function Value</text>
    </g>
   </g>
   <g id="line2d_15">
    <path clip-path="url(#pf1660c9154)" d="M 73.832727 295.453638 
L 77.112066 292.001008 
L 80.391405 288.582723 
L 83.670744 285.198106 
L 86.950083 281.846501 
L 90.229421 278.52727 
L 93.50876 275.239793 
L 96.788099 271.983469 
L 100.067438 268.757712 
L 103.346777 265.561955 
L 106.626116 262.395644 
L 109.905455 259.258242 
L 113.184793 256.149225 
L 116.464132 253.068085 
L 119.743471 250.014326 
L 123.02281 246.987465 
L 126.302149 243.987034 
L 129.581488 241.012573 
L 132.860826 238.063639 
L 136.140165 235.139796 
L 139.419504 232.24062 
L 142.698843 229.3657 
L 145.978182 226.514632 
L 149.257521 223.687025 
L 152.53686 220.882495 
L 155.816198 218.100668 
L 159.095537 215.34118 
L 162.374876 212.603675 
L 165.654215 209.887806 
L 168.933554 207.193233 
L 172.212893 204.519624 
L 175.492231 201.866657 
L 178.77157 199.234015 
L 182.050909 196.621388 
L 185.330248 194.028475 
L 188.609587 191.45498 
L 191.888926 188.900616 
L 195.168264 186.365098 
L 198.447603 183.848152 
L 201.726942 181.349507 
L 205.006281 178.8689 
L 208.28562 176.406071 
L 211.564959 173.960767 
L 214.844298 171.532741 
L 218.123636 169.12175 
L 221.402975 166.727558 
L 224.682314 164.349931 
L 227.961653 161.988642 
L 231.240992 159.643467 
L 234.520331 157.31419 
L 237.799669 155.000594 
L 241.079008 152.702471 
L 244.358347 150.419615 
L 247.637686 148.151825 
L 250.917025 145.898902 
L 254.196364 143.660654 
L 257.475702 141.43689 
L 260.755041 139.227425 
L 264.03438 137.032074 
L 267.313719 134.85066 
L 270.593058 132.683007 
L 273.872397 130.528941 
L 277.151736 128.388294 
L 280.431074 126.260899 
L 283.710413 124.146593 
L 286.989752 122.045217 
L 290.269091 119.956613 
L 293.54843 117.880627 
L 296.827769 115.817107 
L 300.107107 113.765904 
L 303.386446 111.726872 
L 306.665785 109.699869 
L 309.945124 107.684751 
L 313.224463 105.681382 
L 316.503802 103.689625 
L 319.78314 101.709345 
L 323.062479 99.740412 
L 326.341818 97.782696 
L 329.621157 95.83607 
L 332.900496 93.90041 
L 336.179835 91.975591 
L 339.459174 90.061494 
L 342.738512 88.158 
L 346.017851 86.264992 
L 349.29719 84.382355 
L 352.576529 82.509976 
L 355.855868 80.647743 
L 359.135207 78.795548 
L 362.414545 76.953283 
L 365.693884 75.120842 
L 368.973223 73.29812 
L 372.252562 71.485016 
L 375.531901 69.681427 
L 378.81124 67.887256 
L 382.090579 66.102403 
L 385.369917 64.326773 
L 388.649256 62.560271 
L 391.928595 60.802804 
L 395.207934 59.054279 
L 398.487273 57.314606 
" style="fill:none;stroke:#1f77b4;stroke-linecap:square;stroke-width:1.5;"/>
   </g>
   <g id="line2d_16">
    <path clip-path="url(#pf1660c9154)" d="M 73.832727 295.488 
L 77.112066 291.364364 
L 80.391405 286.553455 
L 83.670744 285.866182 
L 86.950083 281.055273 
L 90.229421 279.680727 
L 93.50876 276.244364 
L 96.788099 272.120727 
L 100.067438 269.371636 
L 103.346777 270.058909 
L 106.626116 257.000727 
L 109.905455 259.749818 
L 113.184793 250.815273 
L 116.464132 252.877091 
L 119.743471 250.128 
L 123.02281 241.880727 
L 126.302149 239.818909 
L 129.581488 239.131636 
L 132.860826 244.629818 
L 136.140165 233.633455 
L 139.419504 233.633455 
L 142.698843 227.448 
L 145.978182 223.324364 
L 149.257521 227.448 
L 152.53686 219.200727 
L 155.816198 211.640727 
L 159.095537 217.826182 
L 162.374876 210.266182 
L 165.654215 221.262545 
L 168.933554 206.142545 
L 172.212893 212.328 
L 175.492231 199.957091 
L 178.77157 193.084364 
L 182.050909 199.269818 
L 185.330248 202.706182 
L 188.609587 188.960727 
L 191.888926 188.273455 
L 195.168264 197.208 
L 198.447603 183.462545 
L 201.726942 182.088 
L 205.006281 178.651636 
L 208.28562 177.964364 
L 211.564959 177.277091 
L 214.844298 177.277091 
L 218.123636 179.338909 
L 221.402975 165.593455 
L 224.682314 164.218909 
L 227.961653 155.971636 
L 231.240992 162.844364 
L 234.520331 151.848 
L 237.799669 154.597091 
L 241.079008 158.033455 
L 244.358347 156.658909 
L 247.637686 152.535273 
L 250.917025 142.226182 
L 254.196364 148.411636 
L 257.475702 140.164364 
L 260.755041 127.106182 
L 264.03438 143.600727 
L 267.313719 153.909818 
L 270.593058 120.920727 
L 273.872397 120.233455 
L 277.151736 133.291636 
L 280.431074 120.920727 
L 283.710413 129.855273 
L 286.989752 122.982545 
L 290.269091 121.608 
L 293.54843 123.669818 
L 296.827769 105.800727 
L 300.107107 129.168 
L 303.386446 106.488 
L 306.665785 103.051636 
L 309.945124 116.109818 
L 313.224463 87.244364 
L 316.503802 110.611636 
L 319.78314 108.549818 
L 323.062479 99.615273 
L 326.341818 103.051636 
L 329.621157 93.429818 
L 332.900496 94.804364 
L 336.179835 93.429818 
L 339.459174 84.495273 
L 342.738512 89.993455 
L 346.017851 86.557091 
L 349.29719 78.997091 
L 352.576529 75.560727 
L 355.855868 78.997091 
L 359.135207 69.375273 
L 362.414545 81.746182 
L 365.693884 78.997091 
L 368.973223 83.120727 
L 372.252562 78.997091 
L 375.531901 72.811636 
L 378.81124 71.437091 
L 382.090579 78.997091 
L 385.369917 53.568 
L 388.649256 69.375273 
L 391.928595 58.378909 
L 395.207934 54.942545 
L 398.487273 60.440727 
" style="fill:none;stroke:#ff7f0e;stroke-linecap:square;stroke-width:1.5;"/>
   </g>
   <g id="patch_3">
    <path d="M 57.6 307.584 
L 57.6 41.472 
" style="fill:none;stroke:#000000;stroke-linecap:square;stroke-linejoin:miter;stroke-width:0.8;"/>
   </g>
   <g id="patch_4">
    <path d="M 414.72 307.584 
L 414.72 41.472 
" style="fill:none;stroke:#000000;stroke-linecap:square;stroke-linejoin:miter;stroke-width:0.8;"/>
   </g>
   <g id="patch_5">
    <path d="M 57.6 307.584 
L 414.72 307.584 
" style="fill:none;stroke:#000000;stroke-linecap:square;stroke-linejoin:miter;stroke-width:0.8;"/>
   </g>
   <g id="patch_6">
    <path d="M 57.6 41.472 
L 414.72 41.472 
" style="fill:none;stroke:#000000;stroke-linecap:square;stroke-linejoin:miter;stroke-width:0.8;"/>
   </g>
   <g id="text_17">
    <text style="font-family:DejaVu Sans;font-size:12px;font-style:normal;font-weight:normal;" transform="translate(89.5725 22.034625)">Simulated Mean for log(1+x) (Flajolet) Algorithm</text>
    <text style="font-family:DejaVu Sans;font-size:12px;font-style:normal;font-weight:normal;" transform="translate(132.609375 35.472)">(Wasserstein Distances in Legend)</text>
   </g>
   <g id="legend_1">
    <g id="patch_7">
     <path d="M 64.6 78.82825 
L 242.85 78.82825 
Q 244.85 78.82825 244.85 76.82825 
L 244.85 48.472 
Q 244.85 46.472 242.85 46.472 
L 64.6 46.472 
Q 62.6 46.472 62.6 48.472 
L 62.6 76.82825 
Q 62.6 78.82825 64.6 78.82825 
z
" style="fill:#ffffff;opacity:0.8;stroke:#cccccc;stroke-linejoin:miter;"/>
    </g>
    <g id="line2d_17">
     <path d="M 66.6 54.570437 
L 86.6 54.570437 
" style="fill:none;stroke:#1f77b4;stroke-linecap:square;stroke-width:1.5;"/>
    </g>
    <g id="line2d_18"/>
    <g id="text_18">
     <text style="font-family:DejaVu Sans;font-size:10px;font-style:normal;font-weight:normal;text-anchor:start;" transform="rotate(-0, 94.6, 58.070437)" x="94.6" y="58.070437">log(1+x)</text>
    </g>
    <g id="line2d_19">
     <path d="M 66.6 69.248562 
L 86.6 69.248562 
" style="fill:none;stroke:#ff7f0e;stroke-linecap:square;stroke-width:1.5;"/>
    </g>
    <g id="line2d_20"/>
    <g id="text_19">
     <text style="font-family:DejaVu Sans;font-size:10px;font-style:normal;font-weight:normal;text-anchor:start;" transform="rotate(-0, 94.6, 72.748562)" x="94.6" y="72.748562">Simul. Mean (WD=0.005854)</text>
    </g>
   </g>
  </g>
 </g>
 <defs>
  <clipPath id="pf1660c9154">
   <rect height="266.112" width="357.12" x="57.6" y="41.472"/>
  </clipPath>
 </defs>
</svg>

<svg height="460.8" viewBox="0 0 460.8 345.6" width="614.4" xmlns="http://www.w3.org/2000/svg" xmlns:xlink="http://www.w3.org/1999/xlink"><defs><style>*{stroke-linecap:butt;stroke-linejoin:round}</style></defs><g id="figure_1"><path d="M0 345.6h460.8V0H0z" fill="#fff" id="patch_1"/><g id="axes_1"><path d="M57.6 307.584h357.12V41.472H57.6z" fill="#fff" id="patch_2"/><g id="matplotlib.axis_1"><g id="xtick_1"><g id="line2d_1"><defs><path d="M0 0v3.5" id="m094dcdc63f" stroke="#000" stroke-width=".8"/></defs><use x="73.8" xlink:href="#m094dcdc63f" y="307.584" stroke="#000" stroke-width=".8"/></g><text x="73.8" y="322.182" font-family="DejaVu Sans" font-size="10" font-weight="400" text-anchor="middle" id="text_1">0.0</text></g><g id="xtick_2"><use x="138.744" xlink:href="#m094dcdc63f" y="307.584" stroke="#000" stroke-width=".8" id="line2d_2"/><text x="138.744" y="322.182" font-family="DejaVu Sans" font-size="10" font-weight="400" text-anchor="middle" id="text_2">0.2</text></g><g id="xtick_3"><use x="203.688" xlink:href="#m094dcdc63f" y="307.584" stroke="#000" stroke-width=".8" id="line2d_3"/><text x="203.688" y="322.182" font-family="DejaVu Sans" font-size="10" font-weight="400" text-anchor="middle" id="text_3">0.4</text></g><g id="xtick_4"><use x="268.632" xlink:href="#m094dcdc63f" y="307.584" stroke="#000" stroke-width=".8" id="line2d_4"/><text x="268.632" y="322.182" font-family="DejaVu Sans" font-size="10" font-weight="400" text-anchor="middle" id="text_4">0.6</text></g><g id="xtick_5"><use x="333.576" xlink:href="#m094dcdc63f" y="307.584" stroke="#000" stroke-width=".8" id="line2d_5"/><text x="333.576" y="322.182" font-family="DejaVu Sans" font-size="10" font-weight="400" text-anchor="middle" id="text_5">0.8</text></g><g id="xtick_6"><use x="398.52" xlink:href="#m094dcdc63f" y="307.584" stroke="#000" stroke-width=".8" id="line2d_6"/><text x="398.52" y="322.182" font-family="DejaVu Sans" font-size="10" font-weight="400" text-anchor="middle" id="text_6">1.0</text></g><text x="236.16" y="335.861" font-family="DejaVu Sans" font-size="10" font-weight="400" text-anchor="middle" id="text_7">Input Coin&apos;s Heads Probability (λ)</text></g><g id="matplotlib.axis_2"><g id="ytick_1"><g id="line2d_7"><defs><path d="M0 0h-3.5" id="m4ee8a53234" stroke="#000" stroke-width=".8"/></defs><use x="57.6" xlink:href="#m4ee8a53234" y="295.488" stroke="#000" stroke-width=".8"/></g><text x="50.6" y="299.287" font-family="DejaVu Sans" font-size="10" font-weight="400" text-anchor="end" id="text_8">0.0</text></g><g id="ytick_2"><use x="57.6" xlink:href="#m4ee8a53234" y="261.124" stroke="#000" stroke-width=".8" id="line2d_8"/><text x="50.6" y="264.924" font-family="DejaVu Sans" font-size="10" font-weight="400" text-anchor="end" id="text_9">0.1</text></g><g id="ytick_3"><use x="57.6" xlink:href="#m4ee8a53234" y="226.761" stroke="#000" stroke-width=".8" id="line2d_9"/><text x="50.6" y="230.56" font-family="DejaVu Sans" font-size="10" font-weight="400" text-anchor="end" id="text_10">0.2</text></g><g id="ytick_4"><use x="57.6" xlink:href="#m4ee8a53234" y="192.397" stroke="#000" stroke-width=".8" id="line2d_10"/><text x="50.6" y="196.196" font-family="DejaVu Sans" font-size="10" font-weight="400" text-anchor="end" id="text_11">0.3</text></g><g id="ytick_5"><use x="57.6" xlink:href="#m4ee8a53234" y="158.033" stroke="#000" stroke-width=".8" id="line2d_11"/><text x="50.6" y="161.833" font-family="DejaVu Sans" font-size="10" font-weight="400" text-anchor="end" id="text_12">0.4</text></g><g id="ytick_6"><use x="57.6" xlink:href="#m4ee8a53234" y="123.67" stroke="#000" stroke-width=".8" id="line2d_12"/><text x="50.6" y="127.469" font-family="DejaVu Sans" font-size="10" font-weight="400" text-anchor="end" id="text_13">0.5</text></g><g id="ytick_7"><use x="57.6" xlink:href="#m4ee8a53234" y="89.306" stroke="#000" stroke-width=".8" id="line2d_13"/><text x="50.6" y="93.105" font-family="DejaVu Sans" font-size="10" font-weight="400" text-anchor="end" id="text_14">0.6</text></g><g id="ytick_8"><use x="57.6" xlink:href="#m4ee8a53234" y="54.943" stroke="#000" stroke-width=".8" id="line2d_14"/><text x="50.6" y="58.742" font-family="DejaVu Sans" font-size="10" font-weight="400" text-anchor="end" id="text_15">0.7</text></g><text transform="rotate(-90 28.617 174.528)" x="28.617" y="174.528" font-family="DejaVu Sans" font-size="10" font-weight="400" text-anchor="middle" id="text_16">Simulated Mean / Function Value</text></g><path clip-path="url(#pf1660c9154)" d="M73.833 295.454l3.28-3.453 3.278-3.418 3.28-3.385 3.28-3.351 3.278-3.32 3.28-3.287 3.28-3.257 3.278-3.225 3.28-3.196 3.28-3.166 3.278-3.138 3.28-3.109 3.28-3.08 3.278-3.055 3.28-3.027 3.28-3 3.278-2.974 3.28-2.95 3.28-2.923 3.279-2.9 3.279-2.874 3.28-2.851 3.279-2.828 3.279-2.805 3.28-2.781 3.279-2.76 3.279-2.737 3.28-2.716 3.279-2.695 3.279-2.673 3.28-2.653 3.279-2.633 3.279-2.613 3.28-2.593 3.279-2.573 3.279-2.554 3.28-2.536 3.279-2.517 3.279-2.498 3.28-2.481 3.279-2.463 3.279-2.445 3.28-2.428 3.279-2.411 3.279-2.394 3.28-2.378 3.279-2.361 3.279-2.346 3.28-2.329 3.279-2.313 3.279-2.299 3.28-2.282 3.279-2.268 3.279-2.253 3.28-2.238 3.279-2.224 3.279-2.21 3.28-2.195 3.279-2.181 3.28-2.168 3.278-2.154 3.28-2.14 3.28-2.128 3.278-2.114 3.28-2.102 3.28-2.088 3.278-2.076 3.28-2.064 3.28-2.051 3.278-2.04 3.28-2.026 3.28-2.015 3.278-2.004 3.28-1.991 3.28-1.98 3.278-1.97 3.28-1.957 3.28-1.947L332.9 93.9l3.28-1.924 3.28-1.915 3.279-1.903 3.279-1.893 3.28-1.883 3.279-1.872 3.279-1.862 3.28-1.852 3.279-1.843 3.279-1.832 3.28-1.823 3.279-1.813 3.279-1.804 3.28-1.794 3.279-1.785 3.279-1.775 3.28-1.767 3.279-1.757 3.279-1.749 3.28-1.74" fill="none" stroke="#1f77b4" stroke-linecap="square" stroke-width="1.5" id="line2d_15"/><path clip-path="url(#pf1660c9154)" d="M73.833 295.488l3.28-4.124 3.278-4.81 3.28-.688 3.28-4.81 3.278-1.375 3.28-3.437 3.28-4.123 3.278-2.75 3.28.688 3.28-13.058 3.278 2.749 3.28-8.935 3.28 2.062 3.278-2.749 3.28-8.247 3.28-2.062 3.278-.687 3.28 5.498 3.28-10.997h3.279l3.279-6.185 3.28-4.124 3.279 4.124 3.279-8.247 3.28-7.56 3.279 6.185 3.279-7.56 3.28 10.997 3.279-15.12 3.279 6.185 3.28-12.37 3.279-6.874 3.279 6.186 3.28 3.436 3.279-13.745 3.279-.688 3.28 8.935 3.279-13.745 3.279-1.375 3.28-3.436 3.279-.688 3.279-.687h3.28l3.279 2.062 3.279-13.746 3.28-1.374 3.279-8.247 3.279 6.872 3.28-10.996 3.279 2.75 3.279 3.435 3.28-1.374 3.279-4.124 3.279-10.309 3.28 6.186 3.279-8.248 3.279-13.058 3.28 16.495 3.279 10.309 3.28-32.99 3.278-.687 3.28 13.059 3.28-12.371 3.278 8.934 3.28-6.872 3.28-1.375 3.278 2.062 3.28-17.87 3.28 23.368 3.278-22.68 3.28-3.436 3.28 13.058 3.278-28.866 3.28 23.368 3.28-2.062 3.278-8.935 3.28 3.437 3.28-9.622 3.278 1.374 3.28-1.374 3.28-8.935 3.279 5.498 3.279-3.436 3.28-7.56 3.279-3.436 3.279 3.436 3.28-9.622 3.279 12.371 3.279-2.749 3.28 4.124 3.279-4.124 3.279-6.185 3.28-1.375 3.279 7.56 3.279-25.429 3.28 15.807 3.279-10.996 3.279-3.436 3.28 5.498" fill="none" stroke="#ff7f0e" stroke-linecap="square" stroke-width="1.5" id="line2d_16"/><path d="M57.6 307.584V41.472" fill="none" stroke="#000" stroke-linecap="square" stroke-width=".8" id="patch_3"/><path d="M414.72 307.584V41.472" fill="none" stroke="#000" stroke-linecap="square" stroke-width=".8" id="patch_4"/><path d="M57.6 307.584h357.12" fill="none" stroke="#000" stroke-linecap="square" stroke-width=".8" id="patch_5"/><path d="M57.6 41.472h357.12" fill="none" stroke="#000" stroke-linecap="square" stroke-width=".8" id="patch_6"/><g id="text_17" font-family="DejaVu Sans" font-size="12" font-weight="400"><text transform="translate(89.573 22.035)">Simulated Mean for log(1+x) (Flajolet) Algorithm</text><text transform="translate(132.61 35.472)">(Wasserstein Distances in Legend)</text></g><g id="legend_1"><path d="M64.6 78.828h178.25q2 0 2-2V48.472q0-2-2-2H64.6q-2 0-2 2v28.356q0 2 2 2z" fill="#fff" opacity=".8" stroke="#ccc" id="patch_7"/><path d="M66.6 54.57h20" fill="none" stroke="#1f77b4" stroke-linecap="square" stroke-width="1.5" id="line2d_17"/><text x="94.6" y="58.07" font-family="DejaVu Sans" font-size="10" font-weight="400" id="text_18">log(1+x)</text><path d="M66.6 69.249h20" fill="none" stroke="#ff7f0e" stroke-linecap="square" stroke-width="1.5" id="line2d_19"/><text x="94.6" y="72.749" font-family="DejaVu Sans" font-size="10" font-weight="400" id="text_19">Simul. Mean (WD=0.005854)</text></g></g></g><defs><clipPath id="pf1660c9154"><path d="M57.6 41.472h357.12v266.112H57.6z"/></clipPath></defs></svg>
